X: 24
M:C|
L:1/8
K:Gm
vBdcA G2GB | AFcF dFcF | BdcA G2ag | fdcA AGG2 |
|:a2af g2fg | a2ag fdde | fgaf g2ag | fdcA AGG2 |
a2af g2fg | a2ag fdde | fgaf gabg | fdcA AGG2 :|


